assets/images/vk.svg

<svg width="32" height="19" viewBox="0 0 32 19" fill="none" xmlns="http://www.w3.org/2000/svg">
<path fill-rule="evenodd" clip-rule="evenodd" d="M31.0879 1.31944C31.3228 0.575278 31.0879 0.0342988 30.0488 0.0342988H26.5939C25.7224 0.0342988 25.3199 0.50799 25.0851 1.01466C25.0851 1.01466 23.3077 5.34243 20.8259 8.14819C20.021 8.9597 19.6523 9.2302 19.2162 9.2302C18.9813 9.2302 18.6792 8.9597 18.6792 8.21616V1.28448C18.6792 0.405728 18.4113 0 17.6732 0H12.2396C11.7026 0 11.3675 0.405727 11.3675 0.811455C11.3675 1.65656 12.6085 1.85976 12.7423 4.22618V9.36799C12.7423 10.4836 12.5444 10.6876 12.105 10.6876C10.9314 10.6876 8.08074 6.32607 6.37074 1.35639C6.03824 0.372076 5.70046 0 4.8283 0H1.34035C0.334268 0 0.166702 0.473015 0.166702 0.980344C0.166702 1.8934 1.34035 6.491 5.63316 12.5763C8.48382 16.7325 12.5418 18.9664 16.1974 18.9664C18.4113 18.9664 18.6792 18.459 18.6792 17.614V14.4697C18.6792 13.4557 18.8804 13.2868 19.585 13.2868C20.0877 13.2868 20.9935 13.5566 23.0393 15.5516C25.3866 17.9181 25.789 19 27.0972 19H30.5515C31.5577 19 32.0273 18.4926 31.7588 17.5124C31.4573 16.532 30.3166 15.1123 28.8409 13.422C28.036 12.476 26.8288 11.4277 26.4599 10.9204C25.9572 10.2441 26.0911 9.97373 26.4599 9.36545C26.4262 9.36545 30.6524 3.34743 31.0879 1.31681" fill="white"/>
</svg>

<svg xmlns="http://www.w3.org/2000/svg" width="32" height="19" fill="none"><path fill="#fff" fill-rule="evenodd" d="M31.088 1.32c.235-.745 0-1.286-1.04-1.286h-3.454c-.872 0-1.274.474-1.509.98 0 0-1.777 4.328-4.26 7.134-.804.812-1.173 1.082-1.609 1.082-.235 0-.537-.27-.537-1.014V1.284C18.68.406 18.411 0 17.673 0H12.24c-.537 0-.873.406-.873.811 0 .846 1.241 1.049 1.375 3.415v5.142c0 1.116-.198 1.32-.637 1.32-1.174 0-4.024-4.362-5.734-9.332C6.038.372 5.7 0 4.828 0H1.34C.334 0 .167.473.167.98c0 .913 1.173 5.511 5.466 11.596 2.85 4.157 6.909 6.39 10.564 6.39 2.214 0 2.482-.507 2.482-1.352V14.47c0-1.014.201-1.183.906-1.183.503 0 1.409.27 3.454 2.265C25.387 17.918 25.79 19 27.097 19h3.454c1.007 0 1.476-.507 1.208-1.488-.302-.98-1.442-2.4-2.918-4.09-.805-.946-2.012-1.994-2.381-2.502-.503-.676-.369-.946 0-1.555-.034 0 4.192-6.018 4.628-8.048" clip-rule="evenodd"/></svg>
